public/assets/landing_page_images/features/Lesson Management.svg

<?xml version="1.0" encoding="UTF-8" standalone="no"?>
<!-- Created with Inkscape (http://www.inkscape.org/) -->

<svg
   width="72"
   height="72"
   viewBox="0 0 72 72"
   version="1.1"
   id="svg1"
   xmlns="http://www.w3.org/2000/svg"
   xmlns:svg="http://www.w3.org/2000/svg">
  <defs
     id="defs1" />
  <g
     id="layer1">
    <path
       style="fill:#860626;fill-opacity:1;fill-rule:evenodd;stroke:none"
       d="m 36.018902,71.989431 c -0.793847,0 -1.436484,-0.75568 -1.436484,-1.62472 V 25.817165 c 0,-4.458534 3.175386,-8.123599 7.069014,-8.123599 h 22.454515 c 0.79385,0 1.43648,0.755684 1.43648,1.662504 v 44.547551 c 0,0.90682 -0.64263,1.62472 -1.43648,1.62472 H 41.651432 c -2.305935,0 -4.196046,2.19148 -4.196046,4.79859 0,0.90682 -0.642638,1.6625 -1.436484,1.6625 z m 5.63253,-51.008641 c -2.305935,0 -4.196046,2.153698 -4.196046,4.79859 v 38.048671 c 1.171869,-0.98239 2.608353,-1.54915 4.196046,-1.54915 H 62.669467 V 20.98079 Z"
       id="path1-8" />
    <path
       style="fill:#860626;fill-opacity:1;fill-rule:evenodd;stroke:none"
       d="m 36.018902,71.989431 c -0.793847,0 -1.436484,-0.75568 -1.436484,-1.62472 0,-2.64489 -1.890111,-4.79859 -4.196046,-4.79859 H 7.894054 c -0.793846,0 -1.436484,-0.75568 -1.436484,-1.6625 V 19.35607 c 0,-0.90682 0.642638,-1.662504 1.436484,-1.662504 H 30.34857 c 3.93143,0 7.106816,3.665065 7.106816,8.123599 v 44.547546 c 0,0.86904 -0.642638,1.62472 -1.436484,1.62472 z M 9.330539,62.278901 H 30.34857 c 1.587693,0 3.024177,0.56676 4.196046,1.54915 V 25.77938 c 0,-2.644892 -1.890111,-4.79859 -4.196046,-4.79859 H 9.330539 Z"
       id="path2-8" />
    <path
       style="fill:#860626;fill-opacity:1;fill-rule:evenodd;stroke:none"
       d="M 70.570127,71.989431 H 1.429876 c -0.793847,0 -1.436484,-0.75568 -1.436484,-1.62472 V 27.026258 c 0,-0.869036 0.642637,-1.624719 1.436484,-1.624719 h 6.464178 c 0.793847,0 1.436485,0.755683 1.436485,1.624719 0,0.906821 -0.642638,1.662504 -1.436485,1.662504 H 2.86636 V 68.702211 H 69.133637 V 28.688762 h -5.02769 c -0.75604,0 -1.43648,-0.755683 -1.43648,-1.662504 0,-0.869036 0.68044,-1.624719 1.43648,-1.624719 h 6.46418 c 0.79385,0 1.43648,0.755683 1.43648,1.624719 v 43.338453 c 0,0.86904 -0.64264,1.62472 -1.43648,1.62472 z"
       id="path3-0" />
    <path
       style="fill:#860626;fill-opacity:1;fill-rule:evenodd;stroke:none"
       d="M 58.057597,30.38905 H 42.067256 c -0.793846,0 -1.436484,-0.755683 -1.436484,-1.624719 0,-0.906821 0.642638,-1.662504 1.436484,-1.662504 h 15.990341 c 0.79384,0 1.43648,0.755683 1.43648,1.662504 0,0.869036 -0.64264,1.624719 -1.43648,1.624719 z"
       id="path4-8" />
    <path
       style="fill:#860626;fill-opacity:1;fill-rule:evenodd;stroke:none"
       d="M 58.057597,38.966061 H 42.067256 c -0.793846,0 -1.436484,-0.755686 -1.436484,-1.624722 0,-0.90682 0.642638,-1.662504 1.436484,-1.662504 h 15.990341 c 0.79384,0 1.43648,0.755684 1.43648,1.662504 0,0.869036 -0.64264,1.624722 -1.43648,1.624722 z"
       id="path5-7" />
    <path
       style="fill:#860626;fill-opacity:1;fill-rule:evenodd;stroke:none"
       d="M 58.057597,47.580851 H 42.067256 c -0.793846,0 -1.436484,-0.75568 -1.436484,-1.6625 0,-0.90682 0.642638,-1.62472 1.436484,-1.62472 h 15.990341 c 0.79384,0 1.43648,0.7179 1.43648,1.62472 0,0.90682 -0.64264,1.6625 -1.43648,1.6625 z"
       id="path6-7" />
    <path
       style="fill:#860626;fill-opacity:1;fill-rule:evenodd;stroke:none"
       d="M 58.057597,56.157861 H 42.067256 c -0.793846,0 -1.436484,-0.75568 -1.436484,-1.62472 0,-0.90682 0.642638,-1.6625 1.436484,-1.6625 h 15.990341 c 0.79384,0 1.43648,0.75568 1.43648,1.6625 0,0.86904 -0.64264,1.62472 -1.43648,1.62472 z"
       id="path7-8" />
    <path
       style="fill:#860626;fill-opacity:1;fill-rule:evenodd;stroke:none"
       d="M 29.932745,30.38905 H 13.942409 c -0.793847,0 -1.436484,-0.755683 -1.436484,-1.624719 0,-0.906821 0.642637,-1.662504 1.436484,-1.662504 h 15.990336 c 0.793847,0 1.474287,0.755683 1.474287,1.662504 0,0.869036 -0.68044,1.624719 -1.474287,1.624719 z"
       id="path8-3" />
    <path
       style="fill:#860626;fill-opacity:1;fill-rule:evenodd;stroke:none"
       d="M 29.932745,38.966061 H 13.942409 c -0.793847,0 -1.436484,-0.755686 -1.436484,-1.624722 0,-0.90682 0.642637,-1.662504 1.436484,-1.662504 h 15.990336 c 0.793847,0 1.474287,0.755684 1.474287,1.662504 0,0.869036 -0.68044,1.624722 -1.474287,1.624722 z"
       id="path9-8" />
    <path
       style="fill:#860626;fill-opacity:1;fill-rule:evenodd;stroke:none"
       d="M 29.932745,47.580851 H 13.942409 c -0.793847,0 -1.436484,-0.75568 -1.436484,-1.6625 0,-0.90682 0.642637,-1.62472 1.436484,-1.62472 h 15.990336 c 0.793847,0 1.474287,0.7179 1.474287,1.62472 0,0.90682 -0.68044,1.6625 -1.474287,1.6625 z"
       id="path10-3" />
    <path
       style="fill:#860626;fill-opacity:1;fill-rule:evenodd;stroke:none"
       d="M 29.932745,56.157861 H 13.942409 c -0.793847,0 -1.436484,-0.75568 -1.436484,-1.62472 0,-0.90682 0.642637,-1.6625 1.436484,-1.6625 h 15.990336 c 0.793847,0 1.474287,0.75568 1.474287,1.6625 0,0.86904 -0.68044,1.62472 -1.474287,1.62472 z"
       id="path11-7" />
    <path
       style="fill:#860626;fill-opacity:1;fill-rule:evenodd;stroke:none"
       d="M 66.260677,13.159465 H 10.086583 c -0.226813,0 -0.453627,-0.07557 -0.68044,-0.188921 L 0.787238,8.0586 C 0.295809,7.756327 -0.006608,7.189564 -0.006608,6.585018 c 0,-0.604547 0.302417,-1.17131 0.793846,-1.435799 L 9.443945,0.199491 C 9.632956,0.086139 9.85977,0.01057 10.086583,0.01057 v 0 h 56.174094 c 3.06198,0 5.55692,2.720461 5.74593,6.158821 v 0.869037 c -0.18901,3.400576 -2.68395,6.121037 -5.74593,6.121037 z M 10.426803,9.872241 h 55.833874 c 1.58769,0 2.87296,-1.473583 2.87296,-3.287223 0,-1.813641 -1.28527,-3.287224 -2.87296,-3.287224 H 10.426803 L 4.643064,6.585018 Z"
       id="path12-1" />
    <path
       style="fill:#860626;fill-opacity:1;fill-rule:evenodd;stroke:none"
       d="m 10.086583,13.12168 c -0.378022,0 -0.756044,-0.151136 -1.02066,-0.45341 -0.567033,-0.642331 -0.567033,-1.700288 0,-2.304835 0.869451,-1.020172 1.36088,-2.342619 1.36088,-3.740633 0,-1.435799 -0.491429,-2.758245 -1.36088,-3.778418 -0.567033,-0.642331 -0.567033,-1.662504 0,-2.304835 0.567033,-0.642331 1.474287,-0.642331 2.003518,0 1.436484,1.62472 2.23033,3.778418 2.23033,6.083253 0,2.304835 -0.793846,4.458533 -2.23033,6.083252 -0.226814,0.302274 -0.642638,0.453411 -0.982858,0.453411 z"
       id="path13-0" />
    <path
       style="fill:#860626;fill-opacity:1;fill-rule:evenodd;stroke:none"
       d="m 58.057597,13.159465 c -0.75605,0 -1.43649,-0.755684 -1.43649,-1.662504 V 1.673074 c 0,-0.90682 0.68044,-1.662504 1.43649,-1.662504 0.79384,0 1.43648,0.755684 1.43648,1.662504 v 9.823887 c 0,0.90682 -0.64264,1.662504 -1.43648,1.662504 z"
       id="path14-7" />
  </g>
</svg>

<svg width="72" height="72" viewBox="0 0 72 72" fill="none" xmlns="http://www.w3.org/2000/svg">
<g clip-path="url(#clip0_149_14241)">
<path d="M36.0061 72C35.2197 72 34.5684 71.2566 34.5684 70.3588V25.7954C34.5684 21.3349 37.7512 17.7019 41.659 17.7019H64.1106C64.8971 17.7019 65.5484 18.4454 65.5484 19.3431V63.9065C65.5484 64.8042 64.8971 65.5476 64.1106 65.5476H41.659C39.3364 65.5476 37.4562 67.7078 37.4562 70.3448C37.4562 71.2425 36.8049 71.986 36.0184 71.986L36.0061 72ZM41.6467 20.9842C39.3241 20.9842 37.4439 23.1444 37.4439 25.7814V63.8363C38.6237 62.8404 40.0737 62.2653 41.6467 62.2653H62.6605V20.9842H41.6467Z" fill="#215679"/>
<path d="M36.0061 72C35.2197 72 34.5684 71.2566 34.5684 70.3588C34.5684 67.7078 32.6759 65.5617 30.3656 65.5617H7.8894C7.10292 65.5617 6.45161 64.8182 6.45161 63.9205V19.3431C6.45161 18.4454 7.10292 17.7019 7.8894 17.7019H30.3533C34.2611 17.7019 37.4439 21.3349 37.4439 25.7954V70.3588C37.4439 71.2566 36.7926 72 36.0061 72ZM9.32719 62.2653H30.3533C31.9263 62.2653 33.3763 62.8545 34.5561 63.8363V25.7814C34.5561 23.1303 32.6636 20.9842 30.3533 20.9842H9.32719V62.2653Z" fill="#215679"/>
<path d="M70.5622 72H1.43779C0.651306 72 0 71.2566 0 70.3588V27.0298C0 26.1321 0.651306 25.3887 1.43779 25.3887H7.8894C8.67588 25.3887 9.32719 26.1321 9.32719 27.0298C9.32719 27.9275 8.67588 28.671 7.8894 28.671H2.87558V68.7177H69.1244V28.671H64.1106C63.3241 28.671 62.6728 27.9275 62.6728 27.0298C62.6728 26.1321 63.3241 25.3887 64.1106 25.3887H70.5622C71.3487 25.3887 72 26.1321 72 27.0298V70.3588C72 71.2566 71.3487 72 70.5622 72Z" fill="#215679"/>
<path d="M58.0645 30.3822H42.0522C41.2657 30.3822 40.6144 29.6388 40.6144 28.7411C40.6144 27.8434 41.2657 27.0999 42.0522 27.0999H58.0522C58.8387 27.0999 59.49 27.8434 59.49 28.7411C59.49 29.6388 58.851 30.3822 58.0645 30.3822Z" fill="#215679"/>
<path d="M58.0645 38.9667H42.0522C41.2657 38.9667 40.6144 38.2233 40.6144 37.3255C40.6144 36.4278 41.2657 35.6844 42.0522 35.6844H58.0522C58.8387 35.6844 59.49 36.4278 59.49 37.3255C59.49 38.2233 58.851 38.9667 58.0645 38.9667Z" fill="#215679"/>
<path d="M58.0645 47.5652H42.0522C41.2657 47.5652 40.6144 46.8217 40.6144 45.924C40.6144 45.0263 41.2657 44.2829 42.0522 44.2829H58.0522C58.8387 44.2829 59.49 45.0263 59.49 45.924C59.49 46.8217 58.851 47.5652 58.0645 47.5652Z" fill="#215679"/>
<path d="M58.0645 56.1636H42.0522C41.2657 56.1636 40.6144 55.4202 40.6144 54.5225C40.6144 53.6248 41.2657 52.8814 42.0522 52.8814H58.0522C58.8387 52.8814 59.49 53.6248 59.49 54.5225C59.49 55.4202 58.851 56.1636 58.0645 56.1636Z" fill="#215679"/>
<path d="M29.9478 30.3822H13.9478C13.1613 30.3822 12.51 29.6388 12.51 28.7411C12.51 27.8434 13.1613 27.0999 13.9478 27.0999H29.9478C30.7342 27.0999 31.3856 27.8434 31.3856 28.7411C31.3856 29.6388 30.7342 30.3822 29.9478 30.3822Z" fill="#215679"/>
<path d="M29.9478 38.9667H13.9478C13.1613 38.9667 12.51 38.2233 12.51 37.3255C12.51 36.4278 13.1613 35.6844 13.9478 35.6844H29.9478C30.7342 35.6844 31.3856 36.4278 31.3856 37.3255C31.3856 38.2233 30.7342 38.9667 29.9478 38.9667Z" fill="#215679"/>
<path d="M29.9478 47.5652H13.9478C13.1613 47.5652 12.51 46.8217 12.51 45.924C12.51 45.0263 13.1613 44.2829 13.9478 44.2829H29.9478C30.7342 44.2829 31.3856 45.0263 31.3856 45.924C31.3856 46.8217 30.7342 47.5652 29.9478 47.5652Z" fill="#215679"/>
<path d="M29.9478 56.1636H13.9478C13.1613 56.1636 12.51 55.4202 12.51 54.5225C12.51 53.6248 13.1613 52.8814 13.9478 52.8814H29.9478C30.7342 52.8814 31.3856 53.6248 31.3856 54.5225C31.3856 55.4202 30.7342 56.1636 29.9478 56.1636Z" fill="#215679"/>
<path d="M66.2488 13.1432H10.0768C9.84332 13.1432 9.63441 13.0731 9.4255 12.9608L0.786482 8.03741C0.294931 7.75687 0 7.19579 0 6.57861C0 5.96143 0.30722 5.40035 0.786482 5.11981L9.43779 0.18235C9.63441 0.0701344 9.85561 0 10.0891 0H66.2488C69.4316 0 72.0123 2.94565 72.0123 6.57861C72.0123 10.2116 69.4316 13.1572 66.2488 13.1572V13.1432ZM10.4209 9.8609H66.2366C67.8218 9.8609 69.1121 8.38808 69.1121 6.57861C69.1121 4.76914 67.8218 3.29632 66.2366 3.29632H10.4209L4.65745 6.57861L10.4209 9.8609Z" fill="#215679"/>
<path d="M10.0768 13.1292C9.70814 13.1292 9.33948 12.9608 9.05684 12.6522C8.49155 12.007 8.49155 10.969 9.05684 10.3378C9.92934 9.3419 10.4209 8.00935 10.4209 6.59263C10.4209 5.17592 9.92934 3.84337 9.05684 2.84746C8.49155 2.20222 8.49155 1.16423 9.05684 0.533021C9.62212 -0.112216 10.5315 -0.112216 11.0845 0.533021C12.51 2.16014 13.2842 4.32028 13.2842 6.62069C13.2842 8.9211 12.51 11.0812 11.0845 12.7084C10.8264 12.9889 10.4455 13.1572 10.0768 13.1572V13.1292Z" fill="#215679"/>
<path d="M58.0645 13.1432C57.278 13.1432 56.6267 12.3998 56.6267 11.502V1.64115C56.6267 0.743425 57.278 0 58.0645 0C58.851 0 59.5023 0.743425 59.5023 1.64115V11.502C59.5023 12.3998 58.851 13.1432 58.0645 13.1432Z" fill="#215679"/>
</g>
<defs>
<clipPath id="clip0_149_14241">
<rect width="72" height="72" fill="white"/>
</clipPath>
</defs>
</svg>
